src/browser/themes/shared/zen-icons/lin/face-sun.svg

#filter dumbComments emptyLines substitution
# This Source Code Form is subject to the terms of the Mozilla Public
# License, v. 2.0. If a copy of the MPL was not distributed with this
# file, You can obtain one at http://mozilla.org/MPL/2.0/.
<svg xmlns="http://www.w3.org/2000/svg" xmlns:xlink="http://www.w3.org/1999/xlink" x="0px" y="0px" width="18px" height="18px" viewBox="0 0 18 18"><path d="M17.25,8.25h-1.292c-.146-1.369-.69-2.619-1.512-3.637l1.583-1.583c.293-.293,.293-.768,0-1.061s-.767-.294-1.061,0l-1.583,1.583c-1.018-.821-2.268-1.365-3.636-1.511V.75c0-.414-.336-.75-.75-.75s-.75,.336-.75,.75v1.292c-1.368,.146-2.618,.69-3.636,1.511l-1.583-1.583c-.293-.293-.768-.293-1.061,0s-.293,.768,0,1.061l1.583,1.583c-.821,1.018-1.365,2.268-1.511,3.637H.75c-.414,0-.75,.336-.75,.75s.336,.75,.75,.75h1.292c.146,1.369,.69,2.619,1.511,3.637l-1.583,1.583c-.293,.293-.293,.768,0,1.061,.146,.146,.338,.22,.53,.22,.191,0,.384-.073,.53-.22l1.583-1.583c1.018,.821,2.268,1.365,3.636,1.511v1.292c0,.414,.336,.75,.75,.75s.75-.336,.75-.75v-1.292c1.368-.146,2.618-.69,3.636-1.511l1.583,1.583c.146,.146,.338,.22,.53,.22s.384-.073,.53-.22c.293-.293,.293-.768,0-1.061l-1.583-1.583c.821-1.018,1.365-2.268,1.512-3.637h1.292c.414,0,.75-.336,.75-.75s-.336-.75-.75-.75Zm-11.25,1.75c-.552,0-1-.448-1-1s.448-1,1-1,1,.448,1,1-.448,1-1,1Zm3,2c-.828,0-1.5-.672-1.5-1.5,0-.276,.224-.5,.5-.5h2c.276,0,.5,.224,.5,.5,0,.828-.672,1.5-1.5,1.5Zm2-3c0-.552,.448-1,1-1s1,.448,1,1-.448,1-1,1-1-.448-1-1Z" fill="context-fill"></path></svg>

#filter dumbComments emptyLines substitution
# This Source Code Form is subject to the terms of the Mozilla Public
# License, v. 2.0. If a copy of the MPL was not distributed with this
# file, You can obtain one at http://mozilla.org/MPL/2.0/.
<svg fill="context-fill" width="18px" height="18px" viewBox="0 0 18 18" xmlns="http://www.w3.org/2000/svg" xmlns:svg="http://www.w3.org/2000/svg"><path d="M 17.25,8.25 H 15.958 C 15.812,6.881 15.268,5.631 14.446,4.613 L 16.029,3.03 c 0.293,-0.293 0.293,-0.768 0,-1.061 -0.293,-0.293 -0.767,-0.294 -1.061,0 L 13.385,3.552 C 12.367,2.731 11.117,2.187 9.749,2.041 V 0.75 C 9.749,0.336 9.413,0 8.999,0 8.585,0 8.249,0.336 8.249,0.75 V 2.042 C 6.881,2.188 5.631,2.732 4.613,3.553 L 3.03,1.97 C 2.737,1.677 2.262,1.677 1.969,1.97 1.676,2.263 1.676,2.738 1.969,3.031 L 3.552,4.614 C 2.731,5.632 2.187,6.882 2.041,8.251 H 0.75 C 0.336,8.251 0,8.587 0,9.001 c 0,0.414 0.336,0.75 0.75,0.75 h 1.292 c 0.146,1.369 0.69,2.619 1.511,3.637 L 1.97,14.971 c -0.293,0.293 -0.293,0.768 0,1.061 0.146,0.146 0.338,0.22 0.53,0.22 0.191,0 0.384,-0.073 0.53,-0.22 l 1.583,-1.583 c 1.018,0.821 2.268,1.365 3.636,1.511 v 1.292 c 0,0.414 0.336,0.75 0.75,0.75 0.414,0 0.75,-0.336 0.75,-0.75 V 15.96 c 1.368,-0.146 2.618,-0.69 3.636,-1.511 l 1.583,1.583 c 0.146,0.146 0.338,0.22 0.53,0.22 0.192,0 0.384,-0.073 0.53,-0.22 0.293,-0.293 0.293,-0.768 0,-1.061 L 14.445,13.388 C 15.266,12.37 15.81,11.12 15.957,9.751 h 1.292 c 0.414,0 0.75,-0.336 0.75,-0.75 0,-0.414 -0.336,-0.75 -0.75,-0.75 z M 6,10 C 5.448,10 5,9.552 5,9 5,8.448 5.448,8 6,8 6.552,8 7,8.448 7,9 7,9.552 6.552,10 6,10 Z m 3,2 C 8.172,12 7.5,11.328 7.5,10.5 7.5,10.224 7.724,10 8,10 h 2 c 0.276,0 0.5,0.224 0.5,0.5 0,0.828 -0.672,1.5 -1.5,1.5 z m 2,-3 c 0,-0.552 0.448,-1 1,-1 0.552,0 1,0.448 1,1 0,0.552 -0.448,1 -1,1 -0.552,0 -1,-0.448 -1,-1 z"/></svg>
